!!!OTL@@FUR: Quant ch'j lavi su pa Valcjalda
!!!OTL@IT: Quando andavo su per la Val Calda
!!!OTL@EN: When I would walk up Val Calda
**kern
*clefG2
*k[f#]
*G:
*M2/4
*MM110
*>[A]
=1
*>A
4.g
8a
=2
12b
12b
12b
8.cc
16cc
=3
4b
4dd
=4
2a
=5
4.dd
8ee
=6
8.dd
16cc
8.b
16cc
=7
2b
=8
4.g
8a
=9
8.b
16b
8.cc
16cc
=10
4b
4dd
=11
2a
=12
4.dd
8ee
=13
8.dd
16cc
8.b
16cc
=13
4.b
8r
=14
*M3/4
2.ee
=15
2.dd
=16
4cc
8cc
8cc
8b
8cc
=17
2dd
4b
=18
2.ee
=19
2.dd
=20
4ff#
8ff#
8ff#
8ee
8ff#
=21
[2.gg
=22
4gg]
4r
4r
==
*-
!!!ARE: Friuli
!!!ENC: Kelly Leistikow
!!!END: 2002/03/07
!!!ref: @{OTL@@FUR}/@{OTL@EN}
